Papirus-nordic/32x32/places/folder-nordic-steam.svg

<svg xmlns="http://www.w3.org/2000/svg" width="32" height="32" version="1"><rect width="25" height="16" x="3" y="12" rx="1.25" ry="1.25" opacity=".2"/><path d="M3 21.75c0 .692.558 1.25 1.25 1.25h22.5c.692 0 1.25-.558 1.25-1.25V8.25C28 7.558 27.442 7 26.75 7H14v-.75C14 5.558 13.443 5 12.75 5h-8.5C3.558 5 3 5.558 3 6.25" fill="#6c9b9a"/><rect width="25" height="16" x="3" y="10" rx="1.25" ry="1.25" opacity=".2"/><rect width="21" height="10" x="5" y="9" rx="1.25" ry="1.25" fill="#e4e4e4"/><rect width="25" height="16" x="3" y="11" rx="1.25" ry="1.25" fill="#82abaa"/><path d="M4.25 5C3.558 5 3 5.558 3 6.25v1C3 6.558 3.558 6 4.25 6h8.5c.693 0 1.25.558 1.25 1.25V8h12.75c.692 0 1.25.557 1.25 1.25v-1C28 7.558 27.442 7 26.75 7H14v-.75C14 5.558 13.443 5 12.75 5h-8.5z" opacity=".1" fill="#fff"/><path d="M7 20.056l3.008 1.737A3 3 0 1 0 16 22a3.089 3.089 0 0 0-.033-.408l3.638-2.598A3.5 3.5 0 0 0 23 15.5a3.5 3.5 0 1 0-7 .014l-2.322 3.568A2.98 2.98 0 0 0 13 19c-.453.001-.9.105-1.307.303L7 16.594M19.5 13a2.5 2.5 0 1 1 0 5 2.5 2.5 0 0 1 0-5zm0 1a1.5 1.5 0 1 0 .001 3.001A1.5 1.5 0 0 0 19.5 14zM13 20a2 2 0 1 1-1.959 2.389l.705.408c.72.415 1.633.171 2.049-.549a1.497 1.497 0 0 0-.549-2.049l-.338-.195A2.83 2.83 0 0 1 13 20z" fill="#4e6766"/></svg>

<svg xmlns="http://www.w3.org/2000/svg" width="32" height="32" version="1">
 <rect style="opacity:0.2" width="25" height="16" x="3" y="12" rx="1.25" ry="1.25"/>
 <path style="fill:#6c9b9a" d="M 3,21.75 C 3,22.442 3.5575,23 4.25,23 H 26.75 C 27.442,23 28,22.442 28,21.75 V 8.25 C 28,7.5575 27.442,7 26.75,7 H 14 V 6.25 C 14,5.5575 13.443,5 12.75,5 H 4.25 C 3.5575,5 3,5.5575 3,6.25"/>
 <rect style="opacity:0.2" width="25" height="16" x="3" y="10" rx="1.25" ry="1.25"/>
 <rect style="fill:#e4e4e4" width="21" height="10" x="5" y="9" rx="1.25" ry="1.25"/>
 <rect style="fill:#82abaa" width="25" height="16" x="3" y="11" rx="1.25" ry="1.25"/>
 <path style="opacity:0.1;fill:#ffffff" d="M 4.25 5 C 3.5575 5 3 5.5575 3 6.25 L 3 7.25 C 3 6.5575 3.5575 6 4.25 6 L 12.75 6 C 13.443 6 14 6.5575 14 7.25 L 14 8 L 26.75 8 C 27.442 8 28 8.5575 28 9.25 L 28 8.25 C 28 7.5575 27.442 7 26.75 7 L 14 7 L 14 6.25 C 14 5.5575 13.443 5 12.75 5 L 4.25 5 z"/>
 <path style="fill:#4e6766" d="M 7,20.056 10.008,21.793 C 10.003,21.862 10,21.931 10,22 10,23.657 11.343,25 13,25 14.657,25 16,23.657 16,22 15.998,21.863 15.987,21.727 15.967,21.592 L 19.605,18.994 C 21.495,18.937 22.998,17.39 23,15.5 23,13.567 21.433,12 19.5,12 17.567,12 15.999,13.567 16,15.514 L 13.678,19.082 C 13.456,19.029 13.228,19.001 13,19 12.547,19.001 12.1,19.105 11.693,19.303 L 7,16.594 M 19.5,13 C 20.881,13 22,14.119 22,15.5 22,16.881 20.881,18 19.5,18 18.119,18 17,16.881 17,15.5 17,14.119 18.119,13 19.5,13 Z M 19.5,14 C 18.672,14 18,14.672 18,15.5 18,16.328 18.672,17 19.5,17 20.328,17 21,16.328 21,15.5 21,14.672 20.328,14 19.5,14 Z M 13,20 C 14.105,20 15,20.895 15,22 15,23.105 14.105,24 13,24 12.046,23.999 11.226,23.324 11.041,22.389 L 11.746,22.797 C 12.466,23.212 13.379,22.968 13.795,22.248 14.21,21.528 13.966,20.615 13.246,20.199 L 12.908,20.004 C 12.939,20.002 12.969,20.001 13,20 Z"/>
</svg>
